X:1
T:Title
%%score { ( 1 3 ) | ( 2 4 ) }
L:1/8
M:4/2
K:Ab
V:1 treble nm="Grand Piano"
V:3 treble 
V:2 bass 
V:4 bass 
V:1
 z8 z4[Q:1/4=124] [CE]4 | [CE]6 [CF]2 [CE]2 [EA]2 [DB]2 [A,CA]2 | [Ec]12 [A,EA]4 | %3
 [A,DF]6 [A,EG]2 [DFA]2 [DFB]2 [=DFc]2 [B,AB]2 | [Ge]12 e4 | e6 d2 c2 [DGB]2 [E_Gc]2 [CGA]2 | %6
 [DFA]12 F4 | z8 z4 G4 |[M:6/4] [A,CA]12 |] %9
V:2
 z8 z4 [A,,A,]4 | [A,,A,]6 [A,,A,]2 [A,,E,]2 [C,A,]2 [E,G,]2 E,2 | A,12 C,4 | %3
 D,6 D,2 D,2 D,2 B,,2 =D,2 | [E,B,]12[K:treble] [DEG]4 | %5
 [CEA]6 [B,EG]2 [A,EA]2[K:bass] E,2 A,,2 A,,2 | D,12 [=D,A,_C]4 | %7
 [E,A,C]6 [E,DE]2 [E,B,D]4 [CE]2 B,2 |[M:6/4] A,,12 |] %9
V:3
 x16 | x16 | x16 | x16 | x16 | x16 | x16 | E6 A2 A2 F2 z2 D2 |[M:6/4] x12 |] %9
V:4
 x16 | x16 | x16 | x16 | x12[K:treble] x4 | x10[K:bass] x6 | x16 | z8 z4 E,4 |[M:6/4] x12 |] %9

